!!!COM: Charles Gounod
!!!CNT: Francais
!!!TXO: Francais
!!!OTL: Je ne Puis Espe/rer
!!!LYR: Albert Delpit
!!!ENC: Jacob Pegg
!!!YOR: Romantic French Song 1830-1870 -David Tunley, ed.,
!!!YOR: New York: Garland Publishing, Inc., 1995, Vol. 5
!!!ODT: 1870/
!!NB: Vocal melody and text only encoded.
!!NB: First instance of melodic material only encoded.
**kern	**silbe
*clef G2	*
*k[b-e-a-]	*
*M4/4	*
*MM[con moto]	*
!!agitato
!!created: 6/11/03 12:24
!!proofed and posted: 6/11/03 12:51
!!edit time: 26 min.
=6	=6
8r	.
{8g	{Ce
8g	n'est
8cc	pas
8b-	me^-
8a-	-me
8g	la
8f	souf-
=7	=7
4a-	-fran-
4g}	-ce}
4r	.
{8g	{Qui
8a-	me
=8	=8
8g	fait
8f	me
2f	taire
8f	et
8g	pleu-
=9	=9
4e-}	-rer;}
4r	.
{4.g	{La
8an	dou-
=10	=10
4b-	-leur
[4b-	a
8b-]	|
8bn	son
8cc	es-
8a-	-pe/-
=11	=11
4a-	-ran-
4g}	-ce,}
4r	.
{4g	{Et
=12	=12
4g	moi,
8f	Je
8c	ne
4e-	puis
8d	es-
8e-	-pe/-
=13	=13
[1c	-rer!
=14	=14
4c]}	|}
4r	.
2r	.
=15	=15
2r	.
{4.e-	{Ce
8f	n'est
=16	=16
4g	pas
8a-	le
8an	re-
4.b-	-gret
8cc	qui
=17	=17
4b-	tu-
8a-}	-e,}
8r	.
{8g	{D'u-
8f	-ne
8a-	joie
8f	e/-
=18	=18
4f	-clo-
4e-}	-se}
4r	.
{8d-	{et
8e-	qui
=19	=19
[4c	meurt;
8c]}	|}
8r	.
{4.cc	{Pour
8cc	la
=20	=20
4.dd	perdre
8b-	il
4b-	faut
8a-	l'a-
8g	-voir
=21	=21
4b-	eu-
8a-}	-e!}
8r	.
{4.g	{Et
8cc	je
=22	=22
8cc	n'ai
8g	pas
(4.g	eu
8f)	|
8e-	ce
8f	bon-
=23	=23
[4g	-heur!
8g]}	|}
4r	.
8r	.
{4bn	{He/-
=24	=24
*k[]	*
4cc	-las!
8b	c'est
8a	l'an-
4b	-gois-
8a	-se
8g	su-
=25	=25
2a	-pre\-
8g}	-me}
8r	.
{4b-	{Que
=26	=26
4a	rien
8cc#	ne
8ee	sau-
4ee	-rait
8a	ex-
8g	-pri-
=27	=27
4f}	-mer!}
8r	.
{8f	{Sen-
4.f	-tir
8e	qu'on
=28	=28
4a	ai-
4a}	-me...}
8r	.
{8g#	{et
8bn	qu'on
8dd	vous
=29	=29
4dd	ai-
8cc}	-me...}
8r	.
{4.cc#	{Et
8cc#	sa-
=30	=30
4dd	-voir
8dd	qu'on
8dd	ne
4.ee	peut
8ee	s'ai-
=31	=31
[2ff	-mer!
8ff]}	|}
{8a-	{Sen-
8b-	-tir
8cc	qu'on
=32	=32
4ee-	ai-
4dd-}	-me,}
8r	.
{8d-	{et
8f	qu'on
8a-	vous
=33	=33
4a-	ai-
8g}	-me}
8r	.
{4.cc	{Et
8e	sa-
=34	=34
4an	-voir
8d	qu'on
8e	ne
4.f	peut
8B	s'ai-
=35	=35
[2c	-mer!
4c]}	|}
4r	.
*-	*-
